icons/Business/reply-all-fill.svg

<svg viewBox="0 0 24 24" xmlns="http://www.w3.org/2000/svg"><path d="M14 4.5V9C19.5228 9 24 13.4772 24 19C24 19.2727 23.9891 19.5428 23.9677 19.81C22.5055 17.0364 19.6381 15.119 16.313 15.0053L16 15H13.9999L14 19.5L6 12L14 4.5ZM8 4.5V7.237L2.92 12L7.999 16.761L8 19.5L0 12L8 4.5Z"/></svg>

<svg xmlns="http://www.w3.org/2000/svg" viewBox="0 0 24 24">
    <g>
        <path fill="none" d="M0 0H24V24H0z"/>
        <path d="M14 4.5V9c5.523 0 10 4.477 10 10 0 .273-.01.543-.032.81-1.463-2.774-4.33-4.691-7.655-4.805L16 15h-2v4.5L6 12l8-7.5zm-6 0v2.737L2.92 12l5.079 4.761L8 19.5 0 12l8-7.5z"/>
    </g>
</svg>
